X:45
T:Collier's Rant, The
R:jig 32
M:6/8
L:1/8
K:G
Q:1/4=140
B| Bee ddd| ccc B2 B| Beed-d d| ccc B2 B| Bee d2 d| ccc B2 A| G3/2 F/2 E G2 A|\
B3/2 ^A/2 B E3| G3/2 F/2 E G2 A| B3/2 A/2 G B/2 d3/2 z| G3/2 F/2 E B2 A|\
B3/2 ^A/2 B E3| G3/2 F/2 E G2 A| B3/2 A/2 G B/2 d3/2 ^d| e3/2 e/2 B c3/2- B/2- A|\
B3/2 ^A/2 B E3|

